svgs/sharp-regular/ditto.svg

<svg xmlns="http://www.w3.org/2000/svg" viewBox="0 0 320 512"><!--! Font Awesome Pro 6.6.0 by @fontawesome - https://fontawesome.com License - https://fontawesome.com/license (Commercial License) Copyright 2024 Fonticons, Inc. --><path d="M72 252L48 108l0-28 48 0 0 28L72 252zM144 32L96 32 48 32 0 32 0 80l0 32L32 304l80 0 32-192 0-32 0-48zM248 252L224 108l0-28 48 0 0 28L248 252zM320 32l-48 0-48 0-48 0 0 48 0 32 32 192 80 0 32-192 0-32 0-48z"/></svg>

<svg xmlns="http://www.w3.org/2000/svg" viewBox="0 0 320 512"><!--! Font Awesome Pro 6.4.2 by @fontawesome - https://fontawesome.com License - https://fontawesome.com/license (Commercial License) Copyright 2023 Fonticons, Inc. --><path d="M72 252L48 108V80H96v28L72 252zM144 32H96 48 0V80v32L32 304h80l32-192V80 32zM248 252L224 108V80h48v28L248 252zM320 32H272 224 176V80v32l32 192h80l32-192V80 32z"/></svg>
